X: 21711
T: Kilwinning's Steeple
R: reel
M: 4/4
K: Gmajor
f|g2 (dB) cdef|gedB cAAf|g2 (dB) cdef|gedB G3f|
g2 (dB) cdef|gedB cAAB|GA (3Bcd gage|dcAc BG G||
B3G c3A|dedB cAAc|B3G (3Bcd ef|gedc BGGA|
B3G c3A|dedB cAAc|GA (3Bcd gage|dBAc BG G2||

